public/images/icons/32x32/questionner-le-monde_32_purple.svg

<svg height="32" viewBox="0 0 32 32" width="32" xmlns="http://www.w3.org/2000/svg"><g fill="#1e1169" stroke="#1e1169" stroke-width=".3" transform="translate(6 5.956)"><path d="m0 12.6572076c.00038479 5.1640336 4.23710901 9.418313 9.62721994 9.6671109 5.39011096.248798 10.03504686-3.5955197 10.55481006-8.7355442.5197633-5.14002446-3.2687226-9.76528212-8.6086761-10.51009468.3119415-.33536699.4849023-.7683512.4862753-1.21732555 0-1.02799747-.8708516-1.86135407-1.9451014-1.86135407-1.07424994 0-1.94510154.8333566-1.94510154 1.86135407.00137303.44897435.17433379.88195856.48627537 1.21732555-4.96607933.70071751-8.64773258 4.77488969-8.65570163 9.57852798zm8.94746686-10.79585353c0-.61679848.52251096-1.11681244 1.16706094-1.11681244.6445499 0 1.1670608.50001396 1.1670608 1.11681244 0 .61679847-.5225109 1.11681243-1.1670608 1.11681243-.64454998 0-1.16706094-.50001396-1.16706094-1.11681243zm1.16706094 1.86135406c5.1563994 0 9.3364871 4.00011169 9.3364871 8.93449947 0 4.9343879-4.1800877 8.9344996-9.3364871 8.9344996-5.15639952 0-9.3364872-4.0001117-9.3364872-8.9344996 0-4.93438778 4.18008768-8.93449947 9.3364872-8.93449947z"/><path d="m10.1145278 20.4748947c4.5118495 0 8.1694262-3.5000977 8.1694262-7.8176871 0-4.31758931-3.6575767-7.81768703-8.1694262-7.81768703-4.51184959 0-8.16942631 3.50009772-8.16942631 7.81768703 0 4.3175894 3.65757672 7.8176871 8.16942631 7.8176871zm-5.48518625-12.54180367.92975851.89344995.55240882-.52862456-.93364871-.88972724c1.25434936-1.08355948 2.86012292-1.721086 4.54764728-1.80551344v1.47046971h.77804055v-1.47046971c1.6875244.08442744 3.293298.72195396 4.5476473 1.80551344l-.5446284.51745643.5524088.52862456.5407383-.52117914c1.1393848 1.19772909 1.8125852 2.73464307 1.9061994 4.35184577h-1.5560812v.7445417h1.5560812c-.0936142 1.6172027-.7668146 3.1541167-1.9061994 4.3518458l-.9297586-.89345-.5524088.5286246.9336487.8897272c-1.2516182 1.090328-2.8576821 1.7345434-4.5476473 1.824127v-1.4890833h-.77804055v1.4890833c-1.68996517-.0895836-3.29602907-.733799-4.54764728-1.824127l.54462842-.5174564-.55240883-.5286246-.54073821.5211792c-1.1323118-1.2003427-1.79852238-2.7369788-1.88674845-4.3518458h1.53663018v-.7445417h-1.53663018c.08822607-1.614867.75443665-3.15150312 1.88674845-4.35184577z"/><path d="m6.22432477 16.7521928c.06385414-.0003115.12664799-.0156537.18283954-.0446787l5.05726389-2.6058957c.0693055-.0326463.1253831-.0863095.1594983-.152631l2.7231421-4.8395206c.0790348-.14425378.0508959-.32092542-.0694584-.43609778-.1203543-.11517235-.3049749-.14209975-.455719-.06646782l-5.05726388 2.6058957c-.06930549.0326463-.12538313.0863095-.15949833.152631l-2.72314208 4.8395206c-.08154658.1443694-.05468257.3228088.06613345.4392796.07341545.069684.17280165.1085306.27620441.1079647zm4.96389903-3.5961423-1.59498325-1.5263103 3.45450025-1.77945449zm-2.14739207-.9976857 1.59498327 1.5263103-3.4545003 1.7794545z"/></g></svg>

<?xml version="1.0" encoding="UTF-8"?>
<svg width="32px" height="32px" viewBox="0 0 32 32" version="1.1" xmlns="http://www.w3.org/2000/svg" xmlns:xlink="http://www.w3.org/1999/xlink">
    <title>icone/32x32/monde_32_purple</title>
    <g id="icone/32x32/monde_32_purple" stroke="none" stroke-width="1" fill="none" fill-rule="evenodd">
        <g id="noun_Compass_1942991" transform="translate(6.000000, 5.000000)" fill="#1E1169" fill-rule="nonzero" stroke="#1E1169" stroke-width="0.3">
            <g id="Group">
                <path d="M0,12.6572076 C0.000384791511,17.8212412 4.23710901,22.0755206 9.62721994,22.3243185 C15.0173309,22.5731165 19.6622668,18.7287988 20.18203,13.5887743 C20.7017933,8.44874984 16.9133074,3.82349218 11.5733539,3.07867962 C11.8852954,2.74331263 12.0582562,2.31032842 12.0596292,1.86135407 C12.0596292,0.833356601 11.1887776,0 10.1145278,0 C9.04027786,0 8.16942626,0.833356601 8.16942626,1.86135407 C8.17079929,2.31032842 8.34376005,2.74331263 8.65570163,3.07867962 C3.6896223,3.77939713 0.00796905183,7.85356931 0,12.6572076 L0,12.6572076 Z M8.94746686,1.86135407 C8.94746686,1.24455559 9.46997782,0.744541626 10.1145278,0.744541626 C10.7590777,0.744541626 11.2815886,1.24455559 11.2815886,1.86135407 C11.2815886,2.47815254 10.7590777,2.9781665 10.1145278,2.9781665 C9.46997782,2.9781665 8.94746686,2.47815254 8.94746686,1.86135407 Z M10.1145278,3.72270813 C15.2709272,3.72270813 19.4510149,7.72281982 19.4510149,12.6572076 C19.4510149,17.5915955 15.2709272,21.5917072 10.1145278,21.5917072 C4.95812828,21.5917072 0.778040596,17.5915955 0.778040596,12.6572076 C0.778040596,7.72281982 4.95812828,3.72270813 10.1145278,3.72270813 Z" id="Shape"></path>
                <path d="M10.1145278,20.4748947 C14.6263773,20.4748947 18.283954,16.974797 18.283954,12.6572076 C18.283954,8.33961829 14.6263773,4.83952057 10.1145278,4.83952057 C5.60267821,4.83952057 1.94510149,8.33961829 1.94510149,12.6572076 C1.94510149,16.974797 5.60267821,20.4748947 10.1145278,20.4748947 L10.1145278,20.4748947 Z M4.62934155,7.93309103 L5.55910006,8.82654098 L6.11150888,8.29791642 L5.17786017,7.40818918 C6.43220953,6.3246297 8.03798309,5.68710318 9.72550745,5.60267574 L9.72550745,7.07314545 L10.503548,7.07314545 L10.503548,5.60267574 C12.1910724,5.68710318 13.796846,6.3246297 15.0511953,7.40818918 L14.5065669,7.92564561 L15.0589757,8.45427017 L15.599714,7.93309103 C16.7390988,9.13082012 17.4122992,10.6677341 17.5059134,12.2849368 L15.9498322,12.2849368 L15.9498322,13.0294785 L17.5059134,13.0294785 C17.4122992,14.6466812 16.7390988,16.1835952 15.599714,17.3813243 L14.6699554,16.4878743 L14.1175466,17.0164989 L15.0511953,17.9062261 C13.7995771,18.9965541 12.1935132,19.6407695 10.503548,19.7303531 L10.503548,18.2412698 L9.72550745,18.2412698 L9.72550745,19.7303531 C8.03554228,19.6407695 6.42947838,18.9965541 5.17786017,17.9062261 L5.72248859,17.3887697 L5.17007976,16.8601451 L4.62934155,17.3813243 C3.49702975,16.1809816 2.83081917,14.6443455 2.7425931,13.0294785 L4.27922328,13.0294785 L4.27922328,12.2849368 L2.7425931,12.2849368 C2.83081917,10.6700698 3.49702975,9.13343368 4.62934155,7.93309103 Z" id="Shape"></path>
                <path d="M6.22432477,16.7521928 C6.28817891,16.7518813 6.35097276,16.7365391 6.40716431,16.7075141 L11.4644282,14.1016184 C11.5337337,14.0689721 11.5898113,14.0153089 11.6239265,13.9489874 L14.3470686,9.1094668 C14.4261034,8.96521302 14.3979645,8.78854138 14.2776102,8.67336902 C14.1572559,8.55819667 13.9726353,8.53126927 13.8218912,8.6069012 L8.76462732,11.2127969 C8.69532183,11.2454432 8.63924419,11.2991064 8.60512899,11.3654279 L5.88198691,16.2049485 C5.80044033,16.3493179 5.82730434,16.5277573 5.94812036,16.6442281 C6.02153581,16.7139121 6.12092201,16.7527587 6.22432477,16.7521928 Z M11.1882238,13.1560505 L9.59324055,11.6297402 L13.0477408,9.85028571 L11.1882238,13.1560505 Z M9.04083173,12.1583648 L10.635815,13.6846751 L7.1813147,15.4641296 L9.04083173,12.1583648 Z" id="Shape"></path>
            </g>
        </g>
    </g>
</svg>
